X:469
T: ICHSTAND AUF HOHEM BERGE
N: F0883
O: Europa, Mitteleuropa, Deutschland
R: erzaehlendes Volks - Lied, Ballade
M: 2/4
L: 1/16
K: F
AB | c3fcABG | A4G2
G2 | A2fdc2=B2 | c4z2
c2 | f2f2edc2 | d4c2
c2 | B4A2
c2 | d2cBA2G2 | F4z2

@@@ Tune index: 5900
